PortableApps/LibreOfficePortable/App/libreoffice/help/media/icon-themes/cmd/sc_insertrowsafter.svg

<svg viewBox="0 0 16 16" xmlns="http://www.w3.org/2000/svg"><path d="m1 2v9h8.1796875c-1.0292272-1.0274485-2.3454804-2.3428748-3.5800781-3.5820312l.0097656-.0097657c-.4097-.406502-.6369443-.9265641-.6074219-1.5058593.0269651-.52912.2681644-.9939133.5898438-1.3164063.3208698-.3216792.7830422-.5681966 1.3203125-.5957031.5945275-.0304468 1.1289288.1970761 1.5371094.6230468l.5566406.5566407-.0039063-3.1699219zm11.998047 0 .003906 3.1738281.568359-.5703125c.401002-.4112012.916951-.5860751 1.429688-.5839844v-2.0195312zm2.001953 6.828125c-.765736.7678833-1.528807 1.534635-2.169922 2.171875h2.169922zm-14 3.171875v2h14v-2z" fill="#fff"/><path d="m1 1c-.554 0-1 .446-1 1v9h1v-4h4v4h1v-3.1816406c-.1408018-.1411948-.2623527-.261843-.4003906-.4003906l.0097656-.0097657c-.4097-.406502-.6369443-.926564-.6074219-1.5058593.0269651-.52912.2681644-.9939133.5898438-1.3164063.1168413-.117136.2570857-.2183358.4082031-.3085937v-2.2773438h3.0019531v-.96875c-.000149-.010644.0019524-.0206405.0019531-.03125zm11.996094 0c.000003.010608.002101.0206077.001953.03125v.96875h2.001953v2.0195312c.266843.0010881.532921.0351428.78125.140625.079374.0337157.144791.0896885.21875.1328126v-2.2929688c0-.554-.446-1-1-1zm-11.996094 1h4v4h-4zm15 5.828125c-.332043.3330692-.647273.6462832-1 1v2.171875h1z" fill="#808080"/><g fill="#4d82b8"><path d="m0 11v4h16v-4h-3.169922c-.084213.083704-.206062.206753-.285156.285156-.366226.410936-.903299.703884-1.482422.714844h3.9375v2h-4v-2h.0625c-.579123.010956-1.1311138-.256057-1.5410156-.658203l-.0019532-.003906-.0039062-.001953c-.0901223-.089933-.2393861-.239553-.3359375-.335938zm1 1h4v2h-4zm5 0h4v2h-4z"/><path d="m15.999635 6.0277003c.01179-.4311716-.263692-.8005516-.609406-.9474006-.345715-.146849-.802291-.08821-1.103572.220735l-2.283321 2.291344-.0059-6.575164c.0041-.29423299-.120959-.58007199-.318375-.75792099s-.442018-.255896-.679721-.255896c-.237705 0-.482308.07805-.679723.255896-.197416.177849-.3224952.463688-.318375.75792099l.0059 6.571257-2.2794131-2.283531c-.2045182-.213432-.4970921-.330105-.763711-.316451-.2666189.01365-.495794.13405-.6640964.302777-.1683023.168728-.2852738.39593-.2988438.662206-.01357.2662736.1015516.558717.3144688.76378l-.0078-.0059c1.3493566 1.354348 2.8640586 2.8685859 3.9142595 3.9165713.523898.514037 1.141224.480337 1.576252-.0078 1.065867-1.055988 2.668209-2.6693447 3.900541-3.9048613.185168-.181347.293604-.4286044.300796-.6875624z"/></g></svg>

<svg viewBox="0 0 16 16" xmlns="http://www.w3.org/2000/svg">
  <path
     style="fill:#ffffff"
     d="M 1 2 L 1 11 L 9.1796875 11 C 8.1504603 9.9725515 6.8342071 8.6571252 5.5996094 7.4179688 L 5.609375 7.4082031 C 5.199675 7.0017011 4.9724307 6.481639 5.0019531 5.9023438 C 5.0289182 5.3732238 5.2701175 4.9084305 5.5917969 4.5859375 C 5.9126667 4.2642583 6.3748391 4.0177409 6.9121094 3.9902344 C 7.5066369 3.9597876 8.0410382 4.1873105 8.4492188 4.6132812 L 9.0058594 5.1699219 L 9.0019531 2 L 1 2 z M 12.998047 2 L 13.001953 5.1738281 L 13.570312 4.6035156 C 13.971314 4.1923144 14.487263 4.0174405 15 4.0195312 L 15 2 L 12.998047 2 z M 15 8.828125 C 14.234264 9.5960083 13.471193 10.36276 12.830078 11 L 15 11 L 15 8.828125 z M 1 12 L 1 14 L 15 14 L 15 12 L 1 12 z "
     />
  <path
     style="fill:#808080"
     d="M 1 1 C 0.446 1 0 1.446 0 2 L 0 11 L 1 11 L 1 7 L 5 7 L 5 11 L 6 11 L 6 7.8183594 C 5.8591982 7.6771646 5.7376473 7.5565164 5.5996094 7.4179688 L 5.609375 7.4082031 C 5.199675 7.0017011 4.9724307 6.4816391 5.0019531 5.9023438 C 5.0289182 5.3732238 5.2701175 4.9084305 5.5917969 4.5859375 C 5.7086382 4.4688015 5.8488826 4.3676017 6 4.2773438 L 6 2 L 9.0019531 2 L 9.0019531 1.03125 C 9.0018041 1.020606 9.0039055 1.0106095 9.0039062 1 L 1 1 z M 12.996094 1 C 12.996097 1.010608 12.998195 1.0206077 12.998047 1.03125 L 12.998047 2 L 15 2 L 15 4.0195312 C 15.266843 4.0206193 15.532921 4.054674 15.78125 4.1601562 C 15.860624 4.1938719 15.926041 4.2498447 16 4.2929688 L 16 2 C 16 1.446 15.554 1 15 1 L 12.996094 1 z M 1 2 L 5 2 L 5 6 L 1 6 L 1 2 z M 16 7.828125 C 15.667957 8.1611942 15.352727 8.4744082 15 8.828125 L 15 11 L 16 11 L 16 7.828125 z "
     />
  <path
     style="fill:#4d82b8"
     d="M 0 11 L 0 15 L 16 15 L 16 11 L 12.830078 11 C 12.745865 11.083704 12.624016 11.206753 12.544922 11.285156 C 12.178696 11.696092 11.641623 11.98904 11.0625 12 L 15 12 L 15 14 L 11 14 L 11 12 L 11.0625 12 C 10.483377 12.010956 9.9313862 11.743943 9.5214844 11.341797 L 9.5195312 11.337891 L 9.515625 11.335938 C 9.4255027 11.246005 9.2762389 11.096385 9.1796875 11 L 0 11 z M 1 12 L 5 12 L 5 14 L 1 14 L 1 12 z M 6 12 L 10 12 L 10 14 L 6 14 L 6 12 z "
     />
  <path
     style="fill:#4d82b8"
     d="m 15.999635,6.0277003 c 0.01179,-0.4311716 -0.263692,-0.8005516 -0.609406,-0.9474006 -0.345715,-0.146849 -0.802291,-0.08821 -1.103572,0.220735 l -2.283321,2.291344 -0.0059,-6.575164 c 0.0041,-0.29423299 -0.120959,-0.58007199 -0.318375,-0.75792099 -0.197416,-0.177849 -0.442018,-0.255896 -0.679721,-0.255896 -0.237705,0 -0.482308,0.07805 -0.679723,0.255896 -0.197416,0.177849 -0.3224952,0.463688 -0.318375,0.75792099 l 0.0059,6.571257 -2.2794131,-2.283531 c -0.2045182,-0.213432 -0.4970921,-0.330105 -0.763711,-0.316451 -0.2666189,0.01365 -0.495794,0.13405 -0.6640964,0.302777 -0.1683023,0.168728 -0.2852738,0.39593 -0.2988438,0.662206 -0.01357,0.2662736 0.1015516,0.558717 0.3144688,0.76378 l -0.0078,-0.0059 c 1.3493566,1.354348 2.8640586,2.8685859 3.9142595,3.9165713 0.523898,0.514037 1.141224,0.480337 1.576252,-0.0078 1.065867,-1.055988 2.668209,-2.6693447 3.900541,-3.9048613 0.185168,-0.181347 0.293604,-0.4286044 0.300796,-0.6875624 z"
     />
</svg>
